svgs/sharp-regular/bread-loaf.svg

<svg xmlns="http://www.w3.org/2000/svg" viewBox="0 0 640 512"><!--! Font Awesome Pro 6.6.0 by @fontawesome - https://fontawesome.com License - https://fontawesome.com/license (Commercial License) Copyright 2024 Fonticons, Inc. --><path d="M112 208l-48 0c-8.8 0-16-7.2-16-16c0-36.7 23.6-63.9 68.1-84.4C160.5 87.1 213.4 80 240 80s79.5 7.1 123.9 27.6C408.4 128.1 432 155.3 432 192c0 8.8-7.2 16-16 16l-48 0 0 48 0 176-48 0-208 0 0-176 0-48zm304 48l112 0 0 176-112 0 0-128 0-48zm152-48l-40 0-50 0c1.3-5.1 2-10.5 2-16c0-51.1-28-86.9-65.8-111.5c28.7 2 72.2 9.7 109.7 27C568.4 128.1 592 155.3 592 192c0 8.8-7.2 16-16 16l-8 0zM112 480l208 0 48 0 48 0 112 0 48 0 0-48 0-128 0-48c35.3 0 64-28.7 64-64C640 64 464 32 400 32L240 32C176 32 0 64 0 192c0 35.3 28.7 64 64 64l0 48 0 128 0 48 48 0z"/></svg>

<svg xmlns="http://www.w3.org/2000/svg" viewBox="0 0 640 512"><!--! Font Awesome Pro 6.4.0 by @fontawesome - https://fontawesome.com License - https://fontawesome.com/license (Commercial License) Copyright 2023 Fonticons, Inc. --><path d="M112 208H64c-8.8 0-16-7.2-16-16c0-36.7 23.6-63.9 68.1-84.4C160.5 87.1 213.4 80 240 80s79.5 7.1 123.9 27.6C408.4 128.1 432 155.3 432 192c0 8.8-7.2 16-16 16H368v48V432H320 112V256 208zm304 48H528V432H416V304 256zm152-48l-40 0-50 0c1.3-5.1 2-10.5 2-16c0-51.1-28-86.9-65.8-111.5c28.7 2 72.2 9.7 109.7 27C568.4 128.1 592 155.3 592 192c0 8.8-7.2 16-16 16l-8 0zM112 480H320h48 48H528h48V432 304 256c35.3 0 64-28.7 64-64C640 64 464 32 400 32H240C176 32 0 64 0 192c0 35.3 28.7 64 64 64v48V432v48h48z"/></svg>
